X:1
T:Title
%%score { 1 | ( 2 3 ) }
L:1/8
Q:1/4=100
M:2/4
K:G
V:1 treble nm="Grand Piano"
V:2 bass 
V:3 bass 
V:1
 [DB]2 [DB][CA] | [B,G]2 [G,CE][CDF] | [B,DG]2 [G,EG][G,CE] | [B,D]4 | [G,B,D]2 [CE][CF] | %5
 [B,G]2 [DG]A | B2 [DB]2 | [DA]4 | [DB]2 [DB][CA] | [B,G]2 [G,CE][CDF] | [B,DG]2 [G,EG]E | D2 B,C | %12
 [B,D][B,D] [DG][DG] | BB GG | A4 | [B,DG]4 | dd d>e | d2 B2 | BB B>c | B2 G2 | d3 d | ed BG | %22
 [GB]4 | A4 | BB [DB][DA] | [EG]2 [CE]2 | [DG][DG] [EG]E | D2 B,2 | [B,D]3 [CE] | [DG][DG] BB | %30
 [CA]4 | [B,G]4 |] %32
V:2
 [G,,G,]2 [G,,G,][G,,G,] | [G,,G,]2 C,A,, | G,,2 C,E, | G,4 | G,,2 [C,G,][A,,D,] | %5
 [G,,D,]2 [B,,G,][D,F,D] | [G,D]2 [G,,G,]2 | [D,F,]4 | [G,,G,]2 [G,,G,][G,,G,] | [G,,G,]2 C,A,, | %10
 G,,2 C,[E,G,C] | [G,B,]2 [G,,D,G,]2 | [G,,G,][G,,G,] [B,,G,][B,,G,] | %13
 [D,G,D][D,G,D] [D,B,D][D,B,D] | [D,CD]4 | G,,4 | [G,B,G][G,B,G] [G,B,G]>[G,CG] | %17
 [G,B,G]2 [G,DG]2 | [G,DG][G,DG] [G,DG]>[G,EG] | [G,DG]2 [G,B,D]2 | [G,B,G]3 [G,B,G] | %21
 [G,CG][G,B,G] [G,DG][K:bass][G,B,] | z4 | F4 | [G,DG][G,DG][K:bass] [G,,G,][B,,G,] | %25
 [C,G,]2 [C,G,]2 | [B,,G,][B,,G,] [C,G,][E,G,C] | [G,B,]2 [G,,D,G,]2 | [G,,G,]3 [G,,G,] | %29
 [B,,G,][B,,G,] [D,G,D][D,D] | [D,F,]4 | [G,,G,]4 |] %32
V:3
 x4 | x4 | x4 | x4 | x4 | x4 | x4 | x4 | x4 | x4 | x4 | x4 | x4 | x4 | x4 | x4 | x4 | x4 | x4 | %19
 x4 | x4 | x3[K:bass] x | [D,D]4- | [D,D]4 | x2[K:bass] x2 | x4 | x4 | x4 | x4 | x4 | x4 | x4 |] %32

